X:17
T:17 Untitled Hornpipe (Roxburgh Castle)
C:Welch MS
N:Initial rest added by MG
I:abc2nwc
M:C
L:1/8
K:G
zD|GDGB dBGB|c2ce dBGB|c2ec B2d B|A2A2A2BA|
GDGB dBGB|c2ec dBGB|efge dcBA|B2G2G2:|
ef|gdBd GdBd|gdBd GdBd|c2ec B2dB|A2A2A2BA|
GDGB dBGB|c2ec dBGB|efge dcBA|G2G2G2:|


